X:1
T:Title
%%score { ( 1 3 ) | ( 2 4 5 ) }
L:1/8
Q:1/4=100
M:2/2
K:G
V:1 treble nm="Grand Piano"
V:3 treble 
V:2 bass 
V:4 bass 
V:5 bass 
V:1
 [DB]3 [DB] [Ec]2 [DB]2 | [CA]2 [EG]2 [DF]2 [CE]2 | [B,D]4 [DG]2 [DA]2 | [DB]8 | %4
w: James~McGranahan * * *||||
 [DB]3 [DB] [Ec]2 [DB]2 | z4 z2 E2 | D4 G2 A2 | G8 | d3 d e2 d2 | c2 B2 A2 B2 | %10
w: ||||||
 [Fc]3 [Fc] [Fd]2 [DFc]2 | [DGB]2 [CFA]2 [B,G]2 A2 | B3 B c2 B2 | [DFA]2 [B,EG]2 [B,^DF]2 [G,E]2 | %14
w: ||||
 [G,B,D]4 [B,DG]2 [CDA]2 | [B,DG]8 |] %16
w: ||
V:2
 [G,,G,]3 [G,,G,] [G,,G,]2 [G,,G,]2 | [C,G,]2 [C,G,]2 [C,G,]2 [C,G,]2 | [G,,G,]4 [B,,G,]2 [D,F,]2 | %3
 [G,,G,]8 | [G,,G,]3 [G,,G,] [G,,G,]2 [G,,G,]2 | z4 z2 C2 | [D,G,B,]4 [D,B,D]2 [D,CD]2 | [G,B,D]8 | %8
 [G,B,G]3 [G,B,G] [G,CG]2 [G,B,G]2 | [F,A,D]2 [G,D]2 [G,CD]2 [G,B,D]2 | %10
 [D,A,]3 [D,A,] [D,B,]2 D,2 | G,2 D,2 G,,2 [D,F,D]2 | [G,D]3 [G,D] [G,E]2 [G,DG]2 | %13
 D,2 E,2 B,,2 C,2 | D,4 D,2 D,2 | G,,8 |] %16
V:3
 x8 | x8 | x8 | x8 | x8 | [CA]2 [EG]2 .[DF]3 G, | x8 | x8 | x8 | x8 | x8 | x8 | x8 | x8 | x8 | %15
 x8 |] %16
V:4
 x8 | x8 | x8 | x8 | x8 | z4 [C,G,]4 | x8 | x8 | x8 | x8 | x8 | x8 | x8 | x8 | x8 | x8 |] %16
V:5
 x8 | x8 | x8 | x8 | x8 | [C,G,]2 [C,G,]2 z2 z C, | x8 | x8 | x8 | x8 | x8 | x8 | x8 | x8 | x8 | %15
 x8 |] %16

